X: 26863
T: Miners Of Wicklow, The
R: jig
M: 6/8
K: Dmajor
FGA AB=c|BGB AFA|BGE EFG|AFD DED|
FGA AB=c|BGB AFA|Bcd efg|1 fdc d2 A:|2 fdc d2 g||
fdf agf|ece efg|fdf agf|~g3 bag|
fdf agf|ecA ABA|Bcd efg|1 fdc d2 g:|2 fdc d2 A||

